brandFactory_export/3.Masa/Promociones_Ofertas_3Masa.svg

<?xml version="1.0" encoding="UTF-8"?>
<svg width="24px" height="24px" viewBox="0 0 24 24" version="1.1" xmlns="http://www.w3.org/2000/svg" xmlns:xlink="http://www.w3.org/1999/xlink">
    <title>3.Masa/Promociones_Ofertas_3Masa</title>
    <g id="Symbols" stroke="none" stroke-width="1" fill="none" fill-rule="evenodd">
        <g id="3.Masa/Promociones_Ofertas_3Masa" fill="#5CB615" fill-rule="nonzero">
            <path d="M11.7781513,0.0168067227 C12.4201681,0.0168067227 12.8235294,0.531092437 12.9546218,0.702521008 C13.1865546,1.00168067 13.3915966,1.37142857 13.5865546,1.72773109 C13.7512605,2.02689076 14.0504202,2.57142857 14.2184874,2.69579832 C14.4302521,2.6789916 14.9882353,2.34285714 15.2941176,2.15798319 C16.1008403,1.67394958 16.9344538,1.1697479 17.6605042,1.58655462 C18.4,2.01680672 18.3798319,2.99831933 18.3596639,3.94621849 C18.3529412,4.29915966 18.3394958,4.93781513 18.4268908,5.12941176 C18.6184874,5.21680672 19.2605042,5.20336134 19.610084,5.19663866 C20.5613445,5.17647059 21.5428571,5.15630252 21.9697479,5.89579832 C22.3932773,6.62521008 21.8890756,7.45882353 21.4016807,8.26554622 C21.2168067,8.57142857 20.8806723,9.12605042 20.8638655,9.34117647 C20.9882353,9.5092437 21.5327731,9.80840336 21.8319328,9.97310924 C22.1882353,10.1680672 22.5579832,10.3731092 22.8571429,10.605042 C23.5462185,11.1394958 23.5462185,11.6201681 23.5462185,11.7848739 C23.5462185,12.4268908 23.0285714,12.8302521 22.8605042,12.9613445 C22.5613445,13.1932773 22.1915966,13.3983193 21.8352941,13.5932773 C21.5361345,13.7579832 20.9915966,14.0571429 20.8672269,14.2252101 C20.8840336,14.4369748 21.2201681,14.994958 21.405042,15.3008403 C21.892437,16.107563 22.3966387,16.9411765 21.9731092,17.6705882 C21.5428571,18.410084 20.5613445,18.389916 19.6134454,18.3697479 C19.2605042,18.3630252 18.6218487,18.3495798 18.4302521,18.4369748 C18.3428571,18.6285714 18.3563025,19.2705882 18.3630252,19.6201681 C18.3798319,20.5714286 18.4033613,21.5529412 17.6638655,21.9798319 C16.9344538,22.4033613 16.1008403,21.8991597 15.2941176,21.4117647 C14.9882353,21.2268908 14.4336134,20.8907563 14.2184874,20.8739496 C14.0504202,20.9983193 13.7512605,21.5428571 13.5865546,21.8420168 C13.3915966,22.1983193 13.1865546,22.5680672 12.9546218,22.8672269 C12.4201681,23.5529412 11.9361345,23.5529412 11.7781513,23.5529412 C11.1361345,23.5529412 10.7327731,23.0352941 10.6016807,22.8672269 C10.3697479,22.5680672 10.1647059,22.1983193 9.9697479,21.8420168 C9.80504202,21.5428571 9.50588235,20.9983193 9.33781513,20.8739496 C9.12605042,20.8907563 8.56806723,21.2268908 8.26218487,21.4117647 C7.45546218,21.8991597 6.62184874,22.4033613 5.89243697,21.9798319 C5.15294118,21.5495798 5.17310924,20.5680672 5.19327731,19.6201681 C5.2,19.2672269 5.21344538,18.6285714 5.12605042,18.4369748 C4.93445378,18.3495798 4.29243697,18.3630252 3.94285714,18.3697479 C2.99159664,18.389916 2.01008403,18.410084 1.58319328,17.6705882 C1.15966387,16.9411765 1.66386555,16.107563 2.1512605,15.3008403 C2.33613445,14.994958 2.67226891,14.4403361 2.68907563,14.2252101 C2.56470588,14.0571429 2.02016807,13.7579832 1.7210084,13.5932773 C1.36470588,13.3983193 0.994957983,13.1932773 0.695798319,12.9613445 C0.0100840335,12.4268908 0.0100840335,11.9428571 0.0100840335,11.7848739 C0.0100840335,11.1428571 0.524369748,10.7394958 0.695798319,10.6084034 C0.994957983,10.3764706 1.36470588,10.1714286 1.7210084,9.97647059 C2.02016807,9.81176471 2.56470588,9.51260504 2.68907563,9.34453782 C2.67226891,9.13277311 2.33613445,8.57478992 2.1512605,8.26890756 C1.66386555,7.46218487 1.15966387,6.62857143 1.58319328,5.89915966 C2.01344538,5.15966387 2.99495798,5.17983193 3.94285714,5.2 C4.29579832,5.20672269 4.93445378,5.22016807 5.12605042,5.13277311 C5.21344538,4.94117647 5.2,4.29915966 5.19327731,3.94957983 C5.17310924,2.99831933 5.15294118,2.01680672 5.89243697,1.58991597 C6.62184874,1.16638655 7.45546218,1.67058824 8.26218487,2.15798319 C8.56806723,2.34285714 9.12268908,2.6789916 9.33781513,2.69579832 C9.50588235,2.57142857 9.80504202,2.02689076 9.9697479,1.72773109 C10.1647059,1.37142857 10.3697479,1.00168067 10.6016807,0.702521008 C11.1361345,0.0168067227 11.6201681,0.0168067227 11.7781513,0.0168067227 Z M16.2621849,6.05042017 C15.9697479,5.82184874 15.5462185,5.87226891 15.3176471,6.16470588 L15.3176471,6.16470588 L7.17983193,16.5647059 C6.95798319,16.8537815 7.00840336,17.2705882 7.29411765,17.4991597 C7.58319328,17.7310924 8.00672269,17.6806723 8.23865546,17.3915966 L8.23865546,17.3915966 L16.3764706,6.99495798 C16.605042,6.70252101 16.5546218,6.2789916 16.2621849,6.05042017 Z M14.5747899,12.8 C13.1630252,12.8 12.3226891,13.6403361 12.3226891,15.0521008 C12.3226891,16.4638655 13.1663866,17.3042017 14.5747899,17.3042017 C15.9831933,17.3042017 16.8268908,16.4638655 16.8268908,15.0521008 C16.8268908,13.6403361 15.9865546,12.8 14.5747899,12.8 Z M14.5747899,14.1478992 C15.2436975,14.1478992 15.4823529,14.3831933 15.4823529,15.0554622 C15.4823529,15.7277311 15.2436975,15.9630252 14.5747899,15.9630252 C13.9058824,15.9630252 13.6672269,15.7277311 13.6672269,15.0554622 C13.6672269,14.3831933 13.9058824,14.1478992 14.5747899,14.1478992 Z M8.97815126,6.2487395 C7.5697479,6.2487395 6.72605042,7.08907563 6.72605042,8.50084034 C6.72605042,9.91260504 7.56638655,10.7529412 8.97815126,10.7529412 C10.389916,10.7529412 11.2302521,9.91260504 11.2302521,8.50084034 C11.2302521,7.08907563 10.3865546,6.2487395 8.97815126,6.2487395 Z M8.97815126,7.58991597 C9.64705882,7.58991597 9.88571429,7.82521008 9.88571429,8.49747899 C9.88571429,9.1697479 9.64705882,9.40504202 8.97815126,9.40504202 C8.3092437,9.40504202 8.07058824,9.16638655 8.07058824,8.49747899 C8.07058824,7.82857143 8.3092437,7.58991597 8.97815126,7.58991597 Z" id="Promociones_Ofertas_3Masa"></path>
        </g>
    </g>
</svg>

<svg width="24" height="24" viewBox="0 0 24 24" xmlns="http://www.w3.org/2000/svg"><path d="M11.778.017c.642 0 1.046.514 1.177.686.232.299.437.668.632 1.025.164.299.463.843.631.968.212-.017.77-.353 1.076-.538.807-.484 1.64-.988 2.367-.571.739.43.719 1.411.699 2.36-.007.352-.02.99.067 1.182.191.088.834.074 1.183.068.951-.02 1.933-.04 2.36.699.423.73-.08 1.563-.568 2.37-.185.305-.521.86-.538 1.075.124.168.669.467.968.632.356.195.726.4 1.025.632.69.534.69 1.015.69 1.18 0 .642-.518 1.045-.686 1.176-.3.232-.67.437-1.026.632-.299.165-.843.464-.968.632.017.212.353.77.538 1.076.487.807.992 1.64.568 2.37-.43.74-1.412.719-2.36.699-.352-.007-.991-.02-1.183.067-.087.192-.074.834-.067 1.183.017.951.04 1.933-.7 2.36-.729.423-1.562-.08-2.369-.568-.306-.185-.86-.521-1.076-.538-.168.124-.467.669-.631.968-.195.356-.4.726-.632 1.025-.535.686-1.019.686-1.177.686-.642 0-1.045-.518-1.176-.686-.232-.299-.437-.669-.632-1.025-.165-.3-.464-.844-.632-.968-.212.017-.77.353-1.076.538-.807.487-1.64.991-2.37.568-.74-.43-.719-1.412-.699-2.36.007-.353.02-.991-.067-1.183-.192-.087-.834-.074-1.183-.067-.951.02-1.933.04-2.36-.7-.423-.729.08-1.562.568-2.37.185-.305.521-.86.538-1.075-.124-.168-.669-.467-.968-.632-.356-.195-.726-.4-1.025-.632C.01 12.427.01 11.943.01 11.785c0-.642.514-1.046.686-1.177.299-.232.669-.437 1.025-.632.3-.164.844-.463.968-.631-.017-.212-.353-.77-.538-1.076-.487-.807-.991-1.64-.568-2.37.43-.74 1.412-.72 2.36-.699.353.007.991.02 1.183-.067.087-.192.074-.834.067-1.183-.02-.952-.04-1.933.7-2.36.729-.424 1.562.08 2.37.568.305.185.86.521 1.075.538.168-.125.467-.67.632-.968.195-.357.4-.726.632-1.025.534-.686 1.018-.686 1.176-.686zm4.484 6.033a.673.673 0 00-.944.115l-8.138 10.4a.674.674 0 00.114.934c.29.232.713.182.945-.107l8.137-10.397a.673.673 0 00-.114-.945zm-1.687 6.75c-1.412 0-2.252.84-2.252 2.252s.843 2.252 2.252 2.252c1.408 0 2.252-.84 2.252-2.252s-.84-2.252-2.252-2.252zm0 1.348c.669 0 .907.235.907.907 0 .673-.238.908-.907.908-.67 0-.908-.235-.908-.908 0-.672.239-.907.908-.907zm-5.597-7.9c-1.408 0-2.252.841-2.252 2.253 0 1.412.84 2.252 2.252 2.252s2.252-.84 2.252-2.252-.843-2.252-2.252-2.252zm0 1.342c.67 0 .908.235.908.907 0 .673-.239.908-.908.908s-.907-.239-.907-.908c0-.668.238-.907.907-.907z" fill="#5CB615" fill-rule="nonzero"/></svg>
